X:100
T:???  Name (2)
M:2/4
L:1/16
K:G
Bc|d2Bd c2Ac|B2G2 GFGB|A2F2 FEFG|A2G2 G2Bc|!
d2Bd c2Ac|B2G2 GFGB|A2F2 FEFG|A2G2 G2:|!
|:(3DEF|G2Bd g3f|f2e2 ede2|D2FA f3e|e2d2 dcd2|!
G2Bd g3f|f2e2 e3g|f2a2 e2f2|g2G2 G2:|!


